svgs/sharp-solid/monument.svg

<svg xmlns="http://www.w3.org/2000/svg" viewBox="0 0 384 512"><!--! Font Awesome Pro 6.6.0 by @fontawesome - https://fontawesome.com License - https://fontawesome.com/license (Commercial License) Copyright 2024 Fonticons, Inc. --><path d="M192 0L96 96 56 416l272 0L288 96 192 0zm64 320l-128 0 0-48 128 0 0 48zM32 448L0 448l0 64 32 0 320 0 32 0 0-64-32 0L32 448z"/></svg>

<svg xmlns="http://www.w3.org/2000/svg" viewBox="0 0 384 512"><!--! Font Awesome Pro 6.4.2 by @fontawesome - https://fontawesome.com License - https://fontawesome.com/license (Commercial License) Copyright 2023 Fonticons, Inc. --><path d="M192 0L96 96 56 416H328L288 96 192 0zm64 320H128V272H256v48zM32 448H0v64H32 352h32V448H352 32z"/></svg>
